X:1
T:Title
%%score 1 { 2 | 3 }
L:1/8
Q:1/4=90
M:6/8
K:F
V:1 treble nm="Grand Piano, Soprano"
V:2 bass nm="Choir Pad, Give of Your Sunshine"
V:3 bass 
V:1
 [DF][DF][DG] [DA][DB][Dc] | [DB] [_EA]2- [EA] [CE]2 | [CF][_EG][EA] [EB][EA][EA] | %3
w: By~Charles~Hutchinson~Gabriel * * * * *|||
 [_EG] [DF]2- [DF]2- [DF]/ z/ | [DF][DF][DG] [DA][DB][Dc] | [DB] [CA]2- [CA] [Fc]2 | %6
w: |||
 [Fd][Fc][FA] [CF][CE][EA] | [EG] F2- F2- F/ z/ | F[_Ec][E=B] [Ed][Ec][EA] | %9
w: |||
 [_EF] [DB]2- [DB] [DF]2 | F[_Ec][E=B] [Ed][Ec][EA] | F [^Fd]2- [Fd]2- [Fd]/ z/ | %12
w: |||
 [Fd][Ed][EG] [EA][EB][EA] | [EG] [Fc]2- [Fc] [FA]2 | F[FG][FA] [GB][CE][EA] | [EG] F2- F2- F/ z/ | %16
w: ||||
 [_EF][DF][DG] [DA][DB][Dc] | [DB] [_EA]2- [EA] [F_e]2 | [F_e][Fe]F [EG][_EA][FB] | %19
w: |||
 [Fc] [Fd]2- [Fd]2- [Fd]/ z/ | [Fd][Ed][EG] [Ec][Ec][EG] | [Ed] [_Ec]2- [Ec] [EA]2 | %22
w: |||
 [_EF][EA][EG] [EF][EA][EB] | [_Ec] [DB]2- [DB]3- | [DB]3 z3 |] %25
w: |||
V:2
 B,B,B, B,F,F, | F, F,2- F, A,2 | A,A,A, A,CC | A, B,2- B,2- B,/ z/ | B,B,B, B,F,F, | %5
 F, F,2- F, C2 | B,A,C A,G,C | B, A,2- A,2- A,/ z/ | A,A,_A, A,=A,C | A, F,2- F, B,2 | %10
 B,A,_A, A,=A,C | A, A,2- A,2- A,/ z/ | =B,_B,B, A,G,[K:treble]C | C C2- C C2 | A,DD D[K:bass]G,C | %15
 B, A,2- A,2- A,/ z/ | A,B,B, B,F,F, | F, F,2- F, A,2 | A,A,A, B,CD | A, B,2- B,2- B,/ z/ | %20
 B,B,B, B,B,B, | B, A,2- A, C2 | A,CB, A,CG, | A, B,2- B,3- | B,3 z3 |] %25
V:3
 B,,B,,B,, B,,B,,B,, | B,, C,2- C, F,2 | F,F,F, F,F,F, | F, B,,2- B,,2- B,,/ z/ | %4
 B,,B,,B,, B,,B,,B,, | B,, C,2- C, A,,2 | B,,C,C, C,C,C, | C, F,2- F,2- F,/ z/ | F,F,F, F,F,F, | %9
 F, B,,2- B,, B,,2 | D,F,F, F,F,F, | _E, D,2- D,2- D,/ z/ | G,C,C, C,C,C, | B, A,2- A, F,2 | %14
 F,B,,B,, G,,C,C, | C, F,2- F,2- F,/ z/ | F,B,,B,, B,,B,,B,, | B,, C,2- C, C,2 | C,F,F, F,F,F, | %19
 .F,3 z3 | B,,C,C, C,C,C, | C, F,2- F, F,2 | F,F,F, F,F,F, | F, B,,2- B,,3- | B,,3 z3 |] %25

